X:102
T:O Sam(m)y Dear. HSJJ.104
T:O La,my Dear. HSJJ.104
M:2/4
L:1/16
Q:1/4=100
S:HSJ Jackson,Wyresdale,Lancs.1823
R:.Country DAnce
N:Title very unclear. Could be “O La, my Dear”
O:England
A:Lancashire
H:1823
Z:vmp.Chris Partington.
K:D
f|e3c|A2f2|g2ec|d3f|e3c|A2f2|g2ec|d3:|!
z|a2af|g2ge|f2fd|e4|a2af|g3b|agfe|d4|!
aaaf|ggge|fffd|e2fg|aaaf|g3b|agfe|\
d2″ DC”cd|]

